dist/svgs/crypto-icons/icons/btc.svg

<?xml version="1.0" encoding="UTF-8" standalone="yes"?>
<svg xmlns="http://www.w3.org/2000/svg" xmlns:xlink="http://www.w3.org/1999/xlink" width="512px" height="512px" viewBox="0 0 384 384" version="1.1">
  <g id="surface1">
    <path style=" stroke:none;fill-rule:nonzero;fill:rgb(0%,0%,0%);fill-opacity:1;" d="M 309.535156 190.90625 C 297.1875 181.605469 279.597656 177.886719 279.597656 177.886719 C 279.597656 177.886719 294.480469 169.257812 300.566406 160.632812 C 306.65625 152.007812 309.699219 138.644531 310.207031 131.710938 C 310.714844 124.773438 311.898438 95.683594 289.234375 78.941406 C 271.699219 65.988281 251.609375 60.847656 224.628906 59.171875 L 224.628906 0.46875 L 188.4375 0.46875 L 188.4375 58.480469 L 160.867188 58.480469 L 160.867188 0.46875 L 124.675781 0.46875 L 124.675781 58.480469 L 53.472656 58.480469 L 53.472656 96.066406 L 74.402344 96.066406 C 80.105469 96.066406 90.253906 96.699219 94.566406 101.527344 C 98.878906 106.34375 99.640625 108.882812 99.640625 118.265625 L 99.644531 268.035156 C 99.644531 271.585938 98.96875 275.980469 95.921875 278.855469 C 92.878906 281.734375 89.835938 282.40625 82.558594 282.40625 L 60.914062 282.40625 L 53.472656 325.878906 L 124.675781 325.878906 L 124.675781 383.722656 L 160.867188 383.722656 L 160.867188 325.878906 L 188.4375 325.878906 L 188.4375 383.722656 L 224.632812 383.722656 L 224.632812 324.921875 C 233.988281 324.375 242.710938 323.667969 247.800781 323 C 258.117188 321.652344 281.457031 318.945312 303.277344 303.722656 C 325.09375 288.496094 329.996094 264.648438 330.503906 240.632812 C 331.019531 216.617188 321.875 200.210938 309.535156 190.90625 Z M 160.867188 99.410156 C 160.867188 99.410156 172.367188 98.398438 183.699219 98.5625 C 195.035156 98.730469 205.007812 99.070312 219.898438 103.636719 C 234.777344 108.207031 243.566406 119.371094 243.910156 132.5625 C 244.246094 145.757812 238.492188 154.546875 228.347656 160.128906 C 218.203125 165.710938 204.171875 168.753906 190.972656 169.257812 C 177.785156 169.765625 160.867188 169.257812 160.867188 169.257812 Z M 241.878906 272.429688 C 233.59375 276.996094 217.015625 281.054688 200.953125 282.238281 C 184.882812 283.421875 160.867188 282.914062 160.867188 282.914062 L 160.867188 205.28125 C 160.867188 205.28125 183.871094 204.101562 201.800781 205.28125 C 219.726562 206.46875 234.777344 211.03125 241.539062 214.421875 C 248.304688 217.800781 260.148438 225.242188 260.148438 243.003906 C 260.148438 260.757812 250.160156 267.863281 241.878906 272.429688 Z M 241.878906 272.429688 "/>
  </g>
</svg>

<svg xmlns="http://www.w3.org/2000/svg" viewBox="0 0 384 384"><path d="M309.535 190.906c-12.348-9.3-29.937-13.02-29.937-13.02s14.882-8.628 20.968-17.253c6.09-8.625 9.133-21.988 9.641-28.922.508-6.938 1.691-36.027-20.973-52.77-17.535-12.953-37.625-18.093-64.605-19.77V.47h-36.191v58.01h-27.57V.47h-36.192v58.01H53.473v37.586h20.93c5.702 0 15.85.633 20.163 5.461 4.313 4.817 5.075 7.356 5.075 16.739l.004 149.77c0 3.55-.676 7.944-3.723 10.82-3.043 2.878-6.086 3.55-13.363 3.55H60.914l-7.441 43.473h71.203v57.844h36.191v-57.844h27.57v57.844h36.196v-58.801c9.355-.547 18.078-1.254 23.168-1.922 10.316-1.348 33.656-4.055 55.476-19.277 21.817-15.227 26.72-39.075 27.227-63.09.516-24.016-8.629-40.422-20.969-49.727zM160.867 99.41s11.5-1.012 22.832-.847c11.336.167 21.309.507 36.2 5.074 14.878 4.57 23.667 15.734 24.011 28.925.336 13.196-5.418 21.985-15.562 27.567-10.145 5.582-24.176 8.625-37.375 9.129-13.188.508-30.106 0-30.106 0zm81.012 173.02c-8.285 4.566-24.863 8.625-40.926 9.808-16.07 1.184-40.086.676-40.086.676v-77.633s23.004-1.18 40.934 0c17.926 1.188 32.976 5.75 39.738 9.14 6.766 3.38 18.61 10.821 18.61 28.583 0 17.754-9.989 24.86-18.27 29.426zm0 0"/></svg>
